src/icons/icon_technology.svg

<svg height="76" viewBox="0 0 70 76" width="70" xmlns="http://www.w3.org/2000/svg"><g fill="none"><g fill="#ee5061"><circle cx="13.0237" cy="18.942918" r="5.919662"/><circle cx="65.116131" cy="10.655539" r="3.552389"/><circle cx="35.517526" cy="37.885983" r="10.655539"/></g><path d="m43.8056448 14.2071882c3.0243552 0 5.6116914-1.9005074 6.6346089-4.56923894l10.045666 2.00913324c.4572938 2.1367019 2.3594291 3.744038 4.6305074 3.744038 2.6113107 0 4.7357293-2.1245666 4.7357293-4.7357294 0-2.61116277-2.1245665-4.73572937-4.7357293-4.73572937-2.1233827 0-3.9248838 1.40488372-4.5238055 3.33395349l-9.6887104-1.93765327c.0020719-.07073996.0053277-.14103595.0053277-.21221988.000148-3.91704017-3.1867019-7.10374207-7.1035941-7.10374207-3.9170401 0-7.1035941 3.1867019-7.1035941 7.10374207 0 3.01384783 1.8876322 5.59378433 4.5420085 6.62380553l-2.9210571 12.6575687c-.8997886-.2194715-1.8384989-.3386047-2.8048837-.3386047-3.1612474 0-6.0347992 1.2478647-8.1602537 3.2738689l-8.0596195-7.052093c.5283299-.9927272.8289007-2.1244186.8289007-3.325222 0-3.9170401-3.1867019-7.103742-7.1037421-7.103742-3.91704016 0-7.10359407 3.1868499-7.10359407 7.103742 0 3.9168922 3.1867019 7.1035941 7.10359407 7.1035941 1.8626216 0 3.5590486-.7216067 4.8271882-1.8984355l7.9632769 6.9678858c-1.3436152 1.9201903-2.135074 4.253721-2.135074 6.7700212 0 2.5111205.788203 4.8405074 2.1267865 6.7584778l-13.86074 11.7283298c-1.2697674-1.1846723-2.97167015-1.9117548-4.84109933-1.9117548-3.91704017 0-7.10374207 3.1867019-7.10374207 7.1035941s3.1867019 7.1037421 7.10374207 7.1037421c3.91704013 0 7.10359413-3.1867019 7.10359413-7.1037421 0-1.1947357-.297759-2.3206554-.8209091-3.3096829l13.9609302-11.8132769c2.1266385 2.0317759 5.004334 3.2836363 8.1707611 3.2836363.8938689 0 1.7636152-.1028541 2.6012474-.2915433l4.2156871 12.6472093c-2.2423679.9067442-3.9185201 2.9254968-4.3426639 5.3695772h-7.3695349c-.5385412-2.0231924-2.3857716-3.518351-4.5761945-3.518351-2.6113108 0-4.7357294 2.1245666-4.7357294 4.7357294s2.1245666 4.7357294 4.7357294 4.7357294c2.2354123 0 4.112537-1.557167 4.6072727-3.6435518h7.31611c.5269979 3.4002537 3.4739535 6.0114165 7.0193869 6.0114165 3.9170401 0 7.1035941-3.1867019 7.1035941-7.1037421s-3.186554-7.1035941-7.1035941-7.1035941c-.1099577 0-.2193235.0034038-.3279493.0082876l-4.2964905-12.8894715c4.1172728-1.855666 6.9921565-5.9957294 6.9921565-10.797463 0-.0711839-.0041438-.1413319-.0053277-.2122199l9.6888583-1.9378012c.5989218 1.9290697 2.4002749 3.3341014 4.5236575 3.3341014 2.6113108 0 4.7357294-2.1245666 4.7357294-4.7357293 0-2.6111628-2.1245666-4.7357294-4.7357294-4.7357294-2.2710782 0-4.1730655 1.6074841-4.6302114 3.744038l-9.8614165 1.9724313c-.8009302-3.6013742-3.2447146-6.5899154-6.5033403-8.1336152l2.9954968-12.9798943c.0802114.0025159.1601268.0059197.2407822.0059197zm21.3107823-5.91951378c1.3055814 0 2.3680126 1.06213531 2.3680126 2.36786468 0 1.3057294-1.0621353 2.3678647-2.3680126 2.3678647-1.3057294-.000148-2.3680127-1.0622833-2.3680127-2.3680127 0-1.30572937 1.0624313-2.36771668 2.3680127-2.36771668zm-39.0697675 62.74826638c-1.3055814 0-2.3678647-1.0621353-2.3678647-2.3680127 0-1.3055814 1.0621353-2.3678647 2.3678647-2.3678647s2.3678647 1.0621353 2.3678647 2.3678647c.000148 1.3058774-1.0621353 2.3680127-2.3678647 2.3680127zm23.678647-2.3680127c0 2.6113108-2.1245666 4.7357294-4.7357294 4.7357294-2.6114588 0-4.7358774-2.1242706-4.7358774-4.7357294 0-2.6111628 2.1245666-4.7355814 4.7358774-4.7355814 2.6113107 0 4.7357294 2.1244186 4.7357294 4.7355814zm11.8393234-36.7017547c1.3055814 0 2.3680127 1.0621353 2.3680127 2.3678647 0 1.3057293-1.0621353 2.3678646-2.3680127 2.3678646-1.3054334 0-2.3678647-1.0621353-2.3678647-2.3678646.000148-1.3057294 1.0622833-2.3678647 2.3678647-2.3678647zm-48.5412262-8.2876745c-2.6113108 0-4.73558139-2.1244186-4.73558139-4.7355814 0-2.6114587 2.12441859-4.7357293 4.73558139-4.7357293s4.7357294 2.1244186 4.7357294 4.7357293c0 2.6113108-2.1242706 4.7355814-4.7357294 4.7355814zm-5.91951374 42.6217125c-2.61145877 0-4.73572938-2.1242706-4.73572938-4.7357294 0-2.6113108 2.1244186-4.7355814 4.73572938-4.7355814 2.61131079 0 4.73558144 2.1242706 4.73558144 4.7355814 0 2.6111628-2.12441865 4.7357294-4.73558144 4.7357294zm37.88568714-28.4142283c0 5.2226216-4.2489852 9.4714588-9.4714588 9.4714588s-9.4714588-4.2488372-9.4714588-9.4714588 4.2488372-9.4714588 9.4714588-9.4714588 9.4714588 4.2486892 9.4714588 9.4714588zm-5.9196618-30.78224103c0-2.61145877 2.1245666-4.73572939 4.7357294-4.73572939 2.6114588 0 4.7358774 2.12441861 4.7358774 4.73572939s-2.1245666 4.73558143-4.7358774 4.73558143c-2.6111628 0-4.7357294-2.12441864-4.7357294-4.73558143z" fill="#000"/></g></svg>

<?xml version="1.0" encoding="UTF-8"?>
<svg width="70px" height="76px" viewBox="0 0 70 76" version="1.1" xmlns="http://www.w3.org/2000/svg" xmlns:xlink="http://www.w3.org/1999/xlink">
    <!-- Generator: sketchtool 46.2 (44496) - http://www.bohemiancoding.com/sketch -->
    <title>31BEA807-C8D0-4936-BD7A-94A01BF29F17</title>
    <desc>Created with sketchtool.</desc>
    <defs></defs>
    <g id="Symbols" stroke="none" stroke-width="1" fill="none" fill-rule="evenodd">
        <g id="icon/-icon_technology" fill-rule="nonzero">
            <g id="icon_technology">
                <circle id="Oval" fill="#EE5061" cx="13.0236998" cy="18.9429175" r="5.91966173"></circle>
                <circle id="Oval" fill="#EE5061" cx="65.1161311" cy="10.6555391" r="3.55238901"></circle>
                <circle id="Oval" fill="#EE5061" cx="35.5175264" cy="37.8859831" r="10.6555391"></circle>
                <path d="M43.8056448,14.2071882 C46.83,14.2071882 49.4173362,12.3066808 50.4402537,9.63794926 L60.4859197,11.6470825 C60.9432135,13.7837844 62.8453488,15.3911205 65.1164271,15.3911205 C67.7277378,15.3911205 69.8521564,13.2665539 69.8521564,10.6553911 C69.8521564,8.04422833 67.7275899,5.91966173 65.1164271,5.91966173 C62.9930444,5.91966173 61.1915433,7.32454545 60.5926216,9.25361522 L50.9039112,7.31596195 C50.9059831,7.24522199 50.9092389,7.174926 50.9092389,7.10374207 C50.9093869,3.1867019 47.722537,0 43.8056448,0 C39.8886047,0 36.7020507,3.1867019 36.7020507,7.10374207 C36.7020507,10.1175899 38.5896829,12.6975264 41.2440592,13.7275476 L38.3230021,26.3851163 C37.4232135,26.1656448 36.4845032,26.0465116 35.5181184,26.0465116 C32.356871,26.0465116 29.4833192,27.2943763 27.3578647,29.3203805 L19.2982452,22.2682875 C19.8265751,21.2755603 20.1271459,20.1438689 20.1271459,18.9430655 C20.1271459,15.0260254 16.940444,11.8393235 13.0234038,11.8393235 C9.10636364,11.8393235 5.91980973,15.0261734 5.91980973,18.9430655 C5.91980973,22.8599577 9.10651163,26.0466596 13.0234038,26.0466596 C14.8860254,26.0466596 16.5824524,25.3250529 17.850592,24.1482241 L25.8138689,31.1161099 C24.4702537,33.0363002 23.6787949,35.3698309 23.6787949,37.8861311 C23.6787949,40.3972516 24.4669979,42.7266385 25.8055814,44.6446089 L11.9448414,56.3729387 C10.675074,55.1882664 8.97317125,54.4611839 7.10374207,54.4611839 C3.1867019,54.4611839 -2.84217094e-14,57.6478858 -2.84217094e-14,61.564778 C-2.84217094e-14,65.4816702 3.1867019,68.6685201 7.10374207,68.6685201 C11.0207822,68.6685201 14.2073362,65.4818182 14.2073362,61.564778 C14.2073362,60.3700423 13.9095772,59.2441226 13.3864271,58.2550951 L27.3473573,46.4418182 C29.4739958,48.4735941 32.3516913,49.7254545 35.5181184,49.7254545 C36.4119873,49.7254545 37.2817336,49.6226004 38.1193658,49.4339112 L42.3350529,62.0811205 C40.092685,62.9878647 38.4165328,65.0066173 37.992389,67.4506977 L30.6228541,67.4506977 C30.0843129,65.4275053 28.2370825,63.9323467 26.0466596,63.9323467 C23.4353488,63.9323467 21.3109302,66.0569133 21.3109302,68.6680761 C21.3109302,71.2792389 23.4354968,73.4038055 26.0466596,73.4038055 C28.2820719,73.4038055 30.1591966,71.8466385 30.6539323,69.7602537 L37.9700423,69.7602537 C38.4970402,73.1605074 41.4439958,75.7716702 44.9894292,75.7716702 C48.9064693,75.7716702 52.0930233,72.5849683 52.0930233,68.6679281 C52.0930233,64.7508879 48.9064693,61.564334 44.9894292,61.564334 C44.8794715,61.564334 44.7701057,61.5677378 44.6614799,61.5726216 L40.3649894,48.6831501 C44.4822622,46.8274841 47.3571459,42.6874207 47.3571459,37.8856871 C47.3571459,37.8145032 47.3530021,37.7443552 47.3518182,37.6734672 L57.0406765,35.735666 C57.6395983,37.6647357 59.4409514,39.0697674 61.564334,39.0697674 C64.1756448,39.0697674 66.3000634,36.9452008 66.3000634,34.3340381 C66.3000634,31.7228753 64.1754968,29.5983087 61.564334,29.5983087 C59.2932558,29.5983087 57.3912685,31.2057928 56.9341226,33.3423467 L47.0727061,35.314778 C46.2717759,31.7134038 43.8279915,28.7248626 40.5693658,27.1811628 L43.5648626,14.2012685 C43.645074,14.2037844 43.7249894,14.2071882 43.8056448,14.2071882 Z M65.1164271,8.28767442 C66.4220085,8.28767442 67.4844397,9.34980973 67.4844397,10.6555391 C67.4844397,11.9612685 66.4223044,13.0234038 65.1164271,13.0234038 C63.8106977,13.0232558 62.7484144,11.9611205 62.7484144,10.6553911 C62.7484144,9.34966173 63.8108457,8.28767442 65.1164271,8.28767442 Z M26.0466596,71.0359408 C24.7410782,71.0359408 23.6787949,69.9738055 23.6787949,68.6679281 C23.6787949,67.3623467 24.7409302,66.3000634 26.0466596,66.3000634 C27.352389,66.3000634 28.4145243,67.3621987 28.4145243,68.6679281 C28.4146723,69.9738055 27.352389,71.0359408 26.0466596,71.0359408 Z M49.7253066,68.6679281 C49.7253066,71.2792389 47.60074,73.4036575 44.9895772,73.4036575 C42.3781184,73.4036575 40.2536998,71.2793869 40.2536998,68.6679281 C40.2536998,66.0567653 42.3782664,63.9323467 44.9895772,63.9323467 C47.6008879,63.9323467 49.7253066,66.0567653 49.7253066,68.6679281 Z M61.56463,31.9661734 C62.8702114,31.9661734 63.9326427,33.0283087 63.9326427,34.3340381 C63.9326427,35.6397674 62.8705074,36.7019027 61.56463,36.7019027 C60.2591966,36.7019027 59.1967653,35.6397674 59.1967653,34.3340381 C59.1969133,33.0283087 60.2590486,31.9661734 61.56463,31.9661734 Z M13.0234038,23.6784989 C10.412093,23.6784989 8.28782241,21.5540803 8.28782241,18.9429175 C8.28782241,16.3314588 10.412241,14.2071882 13.0234038,14.2071882 C15.6345666,14.2071882 17.7591332,16.3316068 17.7591332,18.9429175 C17.7591332,21.5542283 15.6348626,23.6784989 13.0234038,23.6784989 Z M7.10389006,66.3002114 C4.49243129,66.3002114 2.36816068,64.1759408 2.36816068,61.564482 C2.36816068,58.9531712 4.49257928,56.8289006 7.10389006,56.8289006 C9.71520085,56.8289006 11.8394715,58.9531712 11.8394715,61.564482 C11.8394715,64.1756448 9.71505285,66.3002114 7.10389006,66.3002114 Z M44.9895772,37.8859831 C44.9895772,43.1086047 40.740592,47.3574419 35.5181184,47.3574419 C30.2956448,47.3574419 26.0466596,43.1086047 26.0466596,37.8859831 C26.0466596,32.6633615 30.2954968,28.4145243 35.5181184,28.4145243 C40.74074,28.4145243 44.9895772,32.6632135 44.9895772,37.8859831 Z M39.0699154,7.10374207 C39.0699154,4.4922833 41.194482,2.36801268 43.8056448,2.36801268 C46.4171036,2.36801268 48.5415222,4.49243129 48.5415222,7.10374207 C48.5415222,9.71505285 46.4169556,11.8393235 43.8056448,11.8393235 C41.194482,11.8393235 39.0699154,9.71490486 39.0699154,7.10374207 Z" id="Shape" fill="#000000"></path>
            </g>
        </g>
    </g>
</svg>
